X:5659
T:Rosin the Beau
O:england
M:6/8
L:1/8
R:Air/Jig
K:D
A|"D"DDD FED|"D"FA2 "G"B3|"D"AFD DEF|"Bm"B,3 "A"B,2A,|"D"DDD FED|"D"FA2
"G
"B3|"D"AFD "A"EFE|"D" D3 D2||A|"D"AFA ABc|"G"d2B dcB|"D"AFE DEF|"Bm"B,3
"A"B,2A,|"D"DDD FED|"D"FA2 "G"B3|"D"AFD "A"EFE|"D" D3 D2|


